X:45
T:A Rumpy Ditty
R:Reel
C:copyright (c) 2002 R. S. Doiel, all rights reserved
M:4/4
L:1/8
Q:1/4=70
K:G
|: gB B2 gB eB | fA A2 fA dA | Bc dg fe dB | gd cB BA GB :|
|: Gd GA Fc FG | gb dg fa cf | Gd GA Fc FG | gd cB BA GB :|

